public/images/partners/sherlock.svg

<svg width="183" height="61" viewBox="0 0 183 61" fill="none" xmlns="http://www.w3.org/2000/svg">
<g clip-path="url(#clip0_511_1043)">
<path d="M91.9361 30.1174C91.6201 29.798 91.2095 29.4467 90.6408 29.2232C90.0722 28.9677 89.5035 28.7441 88.6822 28.5525L87.5449 28.297C87.229 28.2012 86.9762 28.1373 86.7235 28.0415C86.4708 27.9457 86.3128 27.8818 86.1549 27.786C85.9969 27.6902 85.9021 27.5305 85.8389 27.4666C85.7442 27.3069 85.7442 27.2111 85.7442 27.0514C85.7442 26.8918 85.8389 26.6363 85.9021 26.4766C85.9969 26.3169 86.218 26.2211 86.4708 26.0614C86.7235 25.9656 87.0394 25.9017 87.3553 25.9017C87.924 25.9017 88.4294 26.0614 88.6506 26.3169C88.9665 26.5724 89.156 26.8918 89.156 27.3708H92.6627C92.6627 26.4766 92.4099 25.742 91.9992 25.0075C91.5886 24.3368 90.9251 23.7938 90.1038 23.4425C89.2824 23.0274 88.3978 22.8677 87.229 22.8677C86.1549 22.8677 85.1755 23.0274 84.3541 23.4425C83.5328 23.7619 82.8694 24.3368 82.3955 25.0075C81.89 25.6781 81.6689 26.4127 81.7321 27.3069C81.7321 28.3609 82.048 29.1912 82.8062 29.83C83.4696 30.5007 84.4489 30.8839 85.681 31.1394L87.071 31.4588C87.5765 31.5546 87.9556 31.7143 88.3031 31.7781C88.619 31.9378 88.8085 32.0336 88.9665 32.1933C89.1244 32.353 89.1244 32.5127 89.1244 32.7682C89.1244 33.0237 89.0297 33.1834 88.8717 33.3431C88.7137 33.5028 88.5558 33.6624 88.3031 33.7583C88.0503 33.8541 87.7344 33.9179 87.3237 33.9179C86.8183 33.9179 86.4392 33.8221 86.0917 33.6624C85.7758 33.5028 85.523 33.3431 85.2703 32.9918C85.1123 32.7363 84.9544 32.3211 84.9544 31.9378H81.4478C81.4478 33.0876 81.7005 33.9818 82.1743 34.7164C82.6798 35.4509 83.3116 36.0258 84.2278 36.3452C85.1439 36.6645 86.1233 36.8242 87.3237 36.8242C88.461 36.8242 89.4403 36.6645 90.2617 36.3452C91.0831 36.0258 91.7465 35.5148 92.1572 34.9399C92.5679 34.2692 92.8206 33.5347 92.8206 32.6405C92.8206 32.1614 92.7258 31.6504 92.5679 31.1713C92.5047 30.9478 92.252 30.5326 91.9361 30.1174Z" fill="white"/>
<path d="M102.898 28.4888H97.9703V23.1553H94.3057V36.8244H97.9703V31.4909H102.867V36.8244H106.531V23.1553H102.867V28.4888H102.898Z" fill="white"/>
<path d="M108.269 36.8244H117.999V33.7903H111.965V31.4909H117.525V28.4568H111.965V26.0935H118.094V23.1553H108.269V36.8244Z" fill="white"/>
<path d="M130.099 30.2767C130.51 29.606 130.762 28.8076 130.762 27.8175C130.762 26.8275 130.51 26.029 130.099 25.2945C129.688 24.6238 129.12 24.0809 128.298 23.6657C127.572 23.2505 126.655 23.0908 125.676 23.0908H119.863V36.7599H123.559V32.2568H124.855L127.224 36.7599H131.236L128.456 31.5861C129.12 31.3625 129.72 30.8516 130.099 30.2767ZM123.559 26.0929H124.855C125.265 26.0929 125.676 26.1887 125.992 26.2526C126.308 26.3484 126.561 26.572 126.719 26.8275C126.877 27.083 126.971 27.4023 126.971 27.8175C126.971 28.2327 126.877 28.5521 126.719 28.7118C126.561 28.9673 126.308 29.1269 125.992 29.1908C125.676 29.2866 125.329 29.3505 124.855 29.3505H123.559V26.0929Z" fill="white"/>
<path d="M136.007 23.1553H132.342V36.8244H141.504V33.7903H136.038V23.1553H136.007Z" fill="white"/>
<path d="M151.708 23.7293C150.728 23.1544 149.591 22.8989 148.359 22.8989C147.127 22.8989 145.99 23.1544 145.01 23.7293C144.031 24.3042 143.21 25.0387 142.641 26.0926C142.072 27.1466 141.756 28.3921 141.756 29.957C141.756 31.522 142.072 32.7356 142.641 33.8214C143.21 34.8754 144.031 35.6099 145.01 36.1848C145.99 36.7597 147.127 37.0152 148.359 37.0152C149.591 37.0152 150.728 36.7597 151.708 36.1848C152.687 35.6099 153.508 34.8754 154.077 33.8214C154.646 32.7675 154.962 31.522 154.962 29.957C154.962 28.3921 154.646 27.1785 154.077 26.0926C153.508 25.0387 152.687 24.3042 151.708 23.7293ZM150.886 32.0968C150.634 32.6717 150.381 33.0869 149.907 33.4063C149.496 33.7256 149.022 33.8214 148.359 33.8214C147.79 33.8214 147.222 33.6618 146.811 33.4063C146.4 33.0869 146.084 32.6717 145.832 32.0968C145.579 31.522 145.516 30.8832 145.516 30.0529C145.516 29.2225 145.61 28.5837 145.832 28.0089C146.084 27.434 146.337 27.0188 146.811 26.6994C147.222 26.3801 147.696 26.2843 148.359 26.2843C148.928 26.2843 149.496 26.4439 149.907 26.6994C150.318 27.0188 150.634 27.434 150.886 28.0089C151.139 28.5837 151.202 29.2225 151.202 30.0529C151.202 30.7874 151.044 31.522 150.886 32.0968Z" fill="white"/>
<path d="M160.869 26.6681C161.279 26.3487 161.848 26.189 162.416 26.189C162.732 26.189 163.08 26.2848 163.396 26.3487C163.649 26.4445 163.901 26.6042 164.122 26.7639C164.28 26.9236 164.438 27.1791 164.628 27.4346C164.723 27.6901 164.786 28.0095 164.881 28.265H168.64C168.545 27.4346 168.387 26.6362 168.071 25.9655C167.755 25.2948 167.345 24.7519 166.776 24.3367C166.207 23.8576 165.639 23.5063 164.881 23.2828C164.154 23.0273 163.396 22.9634 162.511 22.9634C161.279 22.9634 160.237 23.2189 159.163 23.7937C158.183 24.3686 157.362 25.1032 156.793 26.1571C156.225 27.211 155.909 28.4566 155.909 30.0215C155.909 31.5864 156.161 32.8 156.73 33.8859C157.299 34.9398 158.12 35.6744 159.099 36.2492C160.079 36.8241 161.216 37.0796 162.448 37.0796C163.427 37.0796 164.344 36.9199 165.07 36.6006C165.797 36.2812 166.46 35.866 166.966 35.3869C167.471 34.9079 167.85 34.333 168.103 33.7581C168.356 33.1833 168.514 32.5445 168.608 31.9697H164.849C164.754 32.289 164.691 32.5445 164.596 32.8C164.438 33.0555 164.344 33.2152 164.091 33.3749C163.933 33.5346 163.68 33.6943 163.364 33.7901C163.111 33.8859 162.796 33.9498 162.48 33.9498C161.911 33.9498 161.342 33.7901 160.932 33.5346C160.521 33.2791 160.205 32.8 159.952 32.2252C159.7 31.6503 159.636 31.0116 159.636 30.0854C159.636 29.255 159.731 28.6163 159.952 28.0414C160.11 27.4026 160.458 26.9236 160.869 26.6681Z" fill="white"/>
<path d="M177.297 29.2233L181.877 23.1553H177.613L173.537 28.6485H173.379V23.1553H169.683V36.8244H173.348V33.3113L174.58 31.6825L177.613 36.8563H182.035L177.297 29.2233Z" fill="white"/>
<path fill-rule="evenodd" clip-rule="evenodd" d="M0.54248 0.224121H61.0398V60.8089H0.54248V0.224121ZM49.2569 15.9689L56.3018 15.8731C56.9336 15.8731 57.5338 16.448 57.5654 17.0548C57.5654 17.6935 57.0915 18.2684 56.4281 18.2684H54.3747H51.3419C49.636 18.2684 48.1512 18.9391 47.0139 19.993L46.3505 20.7275L43.065 24.0809L40.285 27.0192C40.285 27.115 40.2218 27.1788 40.127 27.2747L27.0482 41.0396C26.971 41.1254 26.8844 41.2246 26.7902 41.3325C26.4988 41.6661 26.1349 42.0828 25.753 42.4448C25.0264 43.1794 24.363 43.85 23.9523 44.1694C23.8288 44.211 23.7187 44.2933 23.6133 44.3721C23.5569 44.4143 23.5019 44.4554 23.4468 44.4888C22.1516 45.6385 19.9402 46.3731 17.5709 46.3731C15.2015 46.3731 13.0849 45.6385 11.6949 44.5846C11.221 44.2333 10.6524 43.7542 10.1469 43.0197C9.89417 42.7003 9.73621 42.4448 9.57825 42.1254C9.32552 41.7741 9.16757 41.2951 9.00961 40.7202C8.98855 40.635 8.96398 40.5605 8.94058 40.4895C8.89378 40.3476 8.85165 40.2199 8.85165 40.0495C8.85165 40.0131 8.83798 39.9583 8.82103 39.8903C8.79334 39.7793 8.75688 39.6331 8.75688 39.4747V39.315V39.1553V38.5804V38.4207V37.5904V36.3768L8.66211 26.6359C8.66211 25.9014 9.23075 25.3265 9.95735 25.3265L24.5841 25.1668C25.3107 25.1668 25.8794 25.7417 25.8794 26.4762V32.4485L39.9375 21.5579C39.9375 21.4621 40.0323 21.4621 40.0323 21.4621L45.1816 17.438C46.161 16.6396 47.4562 16.0647 48.941 15.9689H49.2569Z" fill="white"/>
</g>
<defs>
<clipPath id="clip0_511_1043">
<rect width="181.966" height="61" fill="white" transform="translate(0.354004)"/>
</clipPath>
</defs>
</svg>

<svg width="183" height="61" viewBox="0 0 183 61" fill="none" xmlns="http://www.w3.org/2000/svg"><g clip-path="url(#clip0_511_1043)"><path d="M91.936 30.117c-.316-.32-.726-.67-1.295-.894a10.002 10.002 0 0 0-1.958-.67l-1.137-.256c-.316-.096-.569-.16-.821-.256a3.305 3.305 0 0 1-.57-.254c-.157-.096-.252-.255-.315-.32-.096-.16-.096-.255-.096-.415 0-.158.095-.414.158-.573.095-.16.316-.256.569-.416.254-.094.57-.158.885-.158.57 0 1.074.16 1.296.415.316.255.506.575.506 1.054h3.507c0-.893-.253-1.628-.664-2.363-.411-.67-1.075-1.213-1.896-1.565-.822-.415-1.706-.574-2.875-.574-1.075 0-2.055.16-2.876.574-.821.32-1.485.895-1.958 1.566-.506.67-.727 1.405-.664 2.299 0 1.054.316 1.884 1.074 2.523.664.67 1.643 1.054 2.875 1.31l1.39.319c.507.095.886.254 1.233.318.316.16.506.256.663.415.158.16.158.32.158.575 0 .256-.094.415-.252.575s-.316.32-.569.415a2.73 2.73 0 0 1-.98.16 2.82 2.82 0 0 1-1.231-.256c-.316-.16-.57-.319-.822-.67-.158-.256-.316-.67-.316-1.054h-3.506c0 1.15.253 2.044.726 2.778.506.735 1.138 1.31 2.054 1.63.916.319 1.895.478 3.096.478 1.137 0 2.116-.16 2.938-.479.821-.32 1.484-.83 1.895-1.405.41-.67.664-1.405.664-2.3 0-.479-.094-.99-.252-1.469-.063-.222-.316-.637-.632-1.053z" fill="white"/><path d="M102.898 28.489H97.97v-5.335h-3.664v13.67h3.664V31.49h4.897v5.334h3.664V23.155h-3.663v5.334h.03z" fill="white"/><path d="M108.27 36.824H118V33.79h-6.035v-2.3h5.56v-3.033h-5.56v-2.364h6.13v-2.938h-9.826v13.67z" fill="white"/><path d="M130.1 30.277c.41-.67.662-1.47.662-2.46s-.252-1.788-.663-2.522c-.412-.671-.98-1.214-1.802-1.63-.726-.415-1.643-.574-2.622-.574h-5.813v13.67h3.696v-4.503h1.295l2.37 4.503h4.01l-2.78-5.174c.665-.224 1.265-.734 1.644-1.31zm-6.54-4.184h1.295c.41 0 .82.096 1.137.16.316.095.57.32.727.574.157.256.25.575.25.99 0 .416-.093.735-.25.895-.16.255-.412.415-.728.479a3.75 3.75 0 0 1-1.137.16h-1.296v-3.257z" fill="white"/><path d="M136.007 23.155h-3.665v13.67h9.162V33.79h-5.466V23.155h-.03z" fill="white"/><path d="M151.708 23.73c-.98-.576-2.117-.831-3.35-.831-1.23-.001-2.368.254-3.348.83-.98.574-1.8 1.309-2.37 2.363-.568 1.054-.884 2.3-.884 3.864 0 1.565.316 2.779.885 3.864.57 1.055 1.39 1.79 2.37 2.365.98.575 2.117.83 3.35.83 1.23 0 2.368-.255 3.348-.83s1.8-1.31 2.37-2.364c.568-1.052.884-2.298.884-3.863 0-1.565-.316-2.779-.885-3.864-.57-1.054-1.39-1.789-2.37-2.364zm-.822 8.367c-.252.575-.505.99-.98 1.31-.41.319-.884.414-1.547.414-.57.001-1.138-.158-1.55-.414-.41-.32-.726-.734-.978-1.31-.253-.574-.316-1.213-.316-2.043 0-.83.094-1.47.316-2.044.252-.576.505-.991.98-1.31.41-.32.884-.416 1.547-.416.568 0 1.136.16 1.547.415.41.319.727.734.98 1.309.252.574.315 1.212.315 2.043 0 .734-.158 1.47-.316 2.044z" fill="white"/><path d="M160.87 26.668c.41-.32.978-.48 1.546-.48.316 0 .664.097.98.16.253.097.505.256.726.416.158.16.316.415.506.67.095.256.158.576.253.83h3.76c-.095-.83-.253-1.628-.57-2.299-.315-.67-.725-1.213-1.294-1.628-.57-.48-1.137-.83-1.895-1.054-.726-.256-1.484-.32-2.37-.32-1.23 0-2.273.256-3.347.83-.98.576-1.8 1.31-2.37 2.364-.568 1.054-.884 2.3-.884 3.865 0 1.564.25 2.778.82 3.864.57 1.054 1.39 1.788 2.37 2.363.98.574 2.116.83 3.348.83.98 0 1.896-.16 2.622-.48.727-.319 1.39-.734 1.896-1.213a5.075 5.075 0 0 0 1.137-1.629c.253-.575.41-1.214.505-1.788h-3.76c-.094.32-.157.574-.252.83-.158.256-.252.415-.505.575-.157.16-.41.32-.726.415-.253.096-.568.16-.884.16-.57 0-1.138-.16-1.548-.415-.41-.256-.727-.735-.98-1.31-.252-.575-.316-1.213-.316-2.14 0-.83.095-1.469.316-2.044.158-.637.506-1.116.917-1.372z" fill="white"/><path d="m177.297 29.223 4.58-6.068h-4.264l-4.076 5.493h-.158v-5.493h-3.697v13.67h3.665V33.31l1.232-1.628 3.033 5.174h4.422l-4.738-7.633z" fill="white"/><path fill-rule="evenodd" clip-rule="evenodd" d="M.542.224H61.04V60.81H.542V.223zM49.257 15.97l7.045-.097c.632 0 1.232.575 1.263 1.182 0 .639-.473 1.213-1.137 1.213h-5.086c-1.706 0-3.19.671-4.328 1.725l-.664.735-3.285 3.353-2.78 2.94c0 .095-.063.159-.158.255L27.048 41.04c-.077.085-.164.185-.258.292-.291.334-.655.75-1.037 1.113-.727.734-1.39 1.405-1.8 1.724a1.27 1.27 0 0 0-.34.202 2.134 2.134 0 0 1-.166.117c-1.295 1.148-3.507 1.883-5.876 1.883-2.368 0-4.485-.735-5.875-1.788-.474-.352-1.043-.83-1.548-1.565a4.69 4.69 0 0 1-.569-.895c-.252-.35-.41-.83-.568-1.405-.021-.085-.046-.16-.07-.23-.046-.142-.088-.27-.088-.44 0-.037-.014-.092-.03-.16a1.7 1.7 0 0 1-.065-.415v-3.098l-.095-9.741c0-.735.569-1.31 1.295-1.31l14.627-.16c.727 0 1.295.576 1.295 1.31v5.973l14.058-10.892c0-.096.094-.096.094-.096l5.15-4.024a6.625 6.625 0 0 1 3.76-1.47h.315z" fill="white"/></g><defs><clipPath id="clip0_511_1043"><rect width="181.966" height="61" fill="white" transform="translate(0.354004)"/></clipPath></defs></svg>
